!!!SOCIAL_FUNCTION:	lightning songs
!!!PDT:	1932
!!!OTL: No_50_White_Cloud_Demonstrates_His_Power_(a).krn
!!!REG: Southwest
!!!LANG: Non-Tone
!!!LING_GROUP: Yuman-Cochimi
**kern	**kern
*staff2	*staff1
=1-	=1-
*clefF4	*clefF4
*k[b-e-a-d-]	*k[b-e-a-d-]
*M4/8	*M4/8
2r	4E-\
.	8E-\
.	8D-\
=2	=2
2r	8E-\
.	8F-\
.	8E-\
.	16D-\LL
.	16D-\JJ
=3	=3
2r	4E-\
.	8D-\
.	16BB-/LL
.	16BB-/JJ
=4||	=4||
*M5/8	*M5/8
3...r	4E-\
.	8E-\L
.	8D-\
.	8BB-\J
=5||	=5||
*M3/8	*M3/8
4.r	4E-\
.	8D-\
=6||	=6||
*M4/8	*M4/8
2r	4E-\
.	8E-\
.	16D-/LL
.	16BB-/JJ
=7	=7
2r	4E-\
.	8F\
.	8D-\
=8	=8
2r	4D-\
.	8D-\
.	16r
.	16D-\
=9	=9
8GG/	8E-\
8r	[8E-\
8GG/	8E-\]
8r	8D-\
=10	=10
8GG/	4D-\
8GG/	.
8GG/	8D-\
8r	16r
.	16D-\
=11	=11
8GG/	8E-\
8GG/	8E-\
8GG/	8E-\
8r	8D-\
=12	=12
8GG/	8.E-\L
8GG/	.
.	16F-\Jk
8GG/	8E-\
8r	16r
.	16E-\
=13	=13
8GG/	8E-\
8GG/	[8E-\
8GG/	8E-\]
8GG/	8D-\
=14	=14
8GG/	4D-\
8GG/	.
8GG/	8D-\
8r	16r
.	16E-\
=15	=15
8GG/	8E-\
8GG/	8E-\
8GG/	8E-\
8r	16r
.	16E-\
=16	=16
8GG/	4.E-\
8GG/	.
8GG/	.
8r	8F\
=17	=17
8GG/	4E-\
8r	.
4r	4r
=18	=18
8GG/	8E-\
8GG/	8E-\
8GG/	8E-\
8r	8D-\
=19	=19
8GG/	4D-\
8GG/	.
8GG/	8D-\
8r	8r
=20	=20
8GG/	8E-\
8GG/	[8E-\
8GG/	8E-\]
8r	8D-\
=21	=21
8GG/	8.E-\L
8GG/	.
.	16F-\Jk
8GG/	8E-\
8r	16r
.	16E-\
=22	=22
8GG/	8A-\
8GG/	[8F\
8GG/	8F\]
8r	8E-\
=23	=23
8GG/	8F\
8GG/	8E-\
8GG/	8E-\
8r	8r
=24	=24
8GG/	8F\
8GG/	[8E-\
8GG/	8E-\]
8GG/	16C/LL
.	16C/JJ
=25	=25
8GG/	4E-\
8GG/	.
8GG/	8C/
8r	8r
=26	=26
8GG/	8AA-/
8GG/	[8E-\
8GG/	8E-\]
8r	16C/LL
.	16C/JJ
=27	=27
8GG/	8.E-\L
8GG/	.
.	16F\Jk
8GG/	8E-\
8r	8r
=28	=28
8GG/	8E-\
8GG/	[8F\
8GG/	8F\]
8r	8C/
=29	=29
8GG/	8.E-\L
8GG/	.
.	16F\Jk
8GG/	8E-\
8r	8r
=30	=30
8GG/	8F\
8GG/	[8E-\
8GG/	8E-\]
8r	8C/
=31	=31
8GG/	8.E-\L
8GG/	.
.	16F\Jk
8GG/	8E-\
8r	8r
=32	=32
8GG/	8F\
8GG/	[8E-\
8GG/	8E-\]
8r	8C/
=33	=33
8GG/	8.E-\L
8GG/	.
.	16F\Jk
8GG/	8E-\
8r	8r
=34	=34
8GG/	8F\
8GG/	[8E-\
8GG/	16E-/LL]
.	16C/JJ
8r	8E-\
=35	=35
8GG/	8C/
8GG/	8C/
8GG/	8C/
8r	8r
=36	=36
8GG/	8C/
8GG/	[8E-\
8GG/	16E-/LL]
.	16C/JJ
8r	8E-\
=37	=37
8GG/	8.E-\L
8GG/	.
.	16F\Jk
8GG/	8E-\
8r	8r
=38	=38
8GG/	8F\
8GG/	[8E-\
8GG/	16E-/LL]
.	16C/JJ
8r	8E-\
=39	=39
8GG/	4C/
8GG/	.
8GG/	8C/
8r	8r
=40!|:	=40!|:
*M3/8	*M3/8
8GG/	8F\L
8r	16G\L
.	16F\
8GG/	16F\
.	16E-\JJ
=41||	=41||
*M5/8	*M5/8
8r	8F\L
8GG/	8E-\
8r	8E-\
8GG/	8E-\J
8r	8r
=42||	=42||
*M4/8	*M4/8
8GG/	8F\
8GG/	[8E-\
8GG/	16E-/LL]
.	16C/JJ
8r	8E-\
=43	=43
8GG/	8E-\
8GG/	8E-\
8GG/	8E-\
8r	16r
.	16E-\
=44	=44
!!pagebreak:default
8GG/	8F\
8GG/	[8E-\
8GG/	16E-/LL]
.	16C/JJ
8r	8E-\
=45	=45
8GG/	4C/
8GG/	.
8GG/	8C/
8r	8r
=46	=46
8GG/	8C/
8GG/	[8E-\
8GG/	16E-/LL]
.	16C/JJ
8r	8E-\
=47	=47
8GG/	8.E-\L
8GG/	.
.	16F\Jk
8GG/	8E-\
8r	16r
.	16F\
=48	=48
8GG/	8F\
8GG/	8E-\
8GG/	16E-/LL
.	16C/JJ
8r	8E-\
=49	=49
8GG/	4C/
8GG/	.
8GG/	8C/
8r	8r
==:|!	==:|!
*-	*-
